src/icons/setup-api.svg

<?xml version="1.0" encoding="utf-8"?>
<!-- Generator: Adobe Illustrator 20.1.0, SVG Export Plug-In . SVG Version: 6.00 Build 0)  -->
<svg version="1.1" id="Layer_1" xmlns="http://www.w3.org/2000/svg" xmlns:xlink="http://www.w3.org/1999/xlink" x="0px" y="0px"
	 viewBox="0 0 29 23" style="enable-background:new 0 0 29 23;" xml:space="preserve">
<style type="text/css">
	.st0{fill:#25A6F7;}
	.st1{fill:#FFFFFF;}
</style>
<title>HDL/Icon/Standard/Setup/api</title>
<desc>Created with Sketch.</desc>
<g id="Colors">
	<g id="Setup-Icons" transform="translate(-116.000000, -196.000000)">
		<g id="HDL_x2F_Icon_x2F_Standard_x2F_Setup_x2F_api" transform="translate(116.000000, 196.000000)">
			<g id="API">
				<path id="Path" class="st0" d="M24.2,3.4h-9.7v0.1v2.7c0,1.8-1,3.3-2.4,4.2c-0.4,2.3-2.6,4.1-4.9,4.1H4.6v4.4c0,2.2,1.8,4,4,4
					h15.6c2.2,0,4-1.8,4-4V7.4C28.2,5.2,26.4,3.4,24.2,3.4z"/>
				<path id="Path_1_" class="st1" d="M23.8,21.6H9.1c-1.6,0-3-1.4-3-3V7.7c0-1.6,1.3-3,3-3h14.7c1.6,0,3,1.4,3,3v10.9
					C26.8,20.2,25.4,21.6,23.8,21.6z"/>
				<path id="Shape" class="st0" d="M9.5,0L9.4,0.8C9.1,0.9,8.8,1.1,8.5,1.3L7.7,1L7,2.4l0.7,0.5c0,0.2-0.1,0.3-0.1,0.5
					c0,0.2,0,0.3,0.1,0.5L7,4.4l0.8,1.4l0.8-0.3C8.9,5.7,9.2,5.9,9.5,6l0.1,0.8h1.6L11.3,6c0.3-0.1,0.6-0.3,0.9-0.5L13,5.8l0.8-1.4
					l-0.7-0.5c0-0.2,0.1-0.3,0.1-0.5c0-0.2,0-0.3-0.1-0.5l0.7-0.5l-1-1.4L12,1.3c-0.3-0.2-0.6-0.4-0.9-0.5V0H9.5z M10.3,2.2
					c0.7,0,1.2,0.5,1.2,1.2S11,4.6,10.3,4.6S9.1,4,9.1,3.4C9.1,2.7,9.6,2.2,10.3,2.2z M3.4,4.7L3.3,5.9C2.7,6,2.2,6.3,1.8,6.7
					l-1-0.5L0,7.6l0.9,0.7c0,0.3-0.1,0.5-0.1,0.8c0,0.3,0,0.6,0.1,0.8L0,10.6L0.8,12l1.1-0.5c0.4,0.4,0.9,0.7,1.4,0.8l0.1,1.2H5
					l0.1-1.2c0.5-0.2,1-0.4,1.4-0.8L7.6,12l0.8-1.4L7.5,9.9c0.1-0.3,0.1-0.5,0.1-0.8c0-0.3,0-0.6-0.1-0.8l0.9-0.7L7.6,6.2L6.5,6.7
					C6.1,6.3,5.7,6,5.1,5.9L5,4.7H3.4z M4.2,7.8c0.7,0,1.3,0.6,1.3,1.4c0,0.7-0.6,1.3-1.3,1.3S2.8,9.9,2.8,9.1
					C2.8,8.4,3.4,7.8,4.2,7.8z"/>
				<path id="Shape_1_" class="st0" d="M13.8,16.3c0.1,0.1,0.3,0.1,0.4,0c0.1-0.1,0.2-0.2,0.2-0.3v-0.1v-0.1l-1.7-5.5
					c-0.1-0.2-0.2-0.3-0.4-0.3S12,10.1,12,10.3l-1.7,5.5v0.1V16c0,0.1,0.1,0.3,0.2,0.3c0.1,0.1,0.3,0.1,0.4,0
					c0.1-0.1,0.2-0.2,0.2-0.3v-0.1l0.3-1.1h2l0.3,1.1V16C13.6,16.1,13.7,16.2,13.8,16.3z M11.5,14.1l0.8-2.5l0.8,2.5H11.5z"/>
				<path id="Path_2_" class="st0" d="M20.1,15.6c-0.2,0-0.4,0.2-0.3,0.4c0,0.2,0.2,0.4,0.4,0.3h1.1c0.1,0,0.3-0.1,0.3-0.2
					c0.1-0.1,0.1-0.3,0-0.4c-0.1-0.1-0.2-0.2-0.3-0.2h-0.2v-4.9h0.2c0.1,0,0.3-0.1,0.3-0.2c0.1-0.1,0.1-0.3,0-0.4s-0.2-0.2-0.3-0.2
					h-0.5h-0.1l0,0h-0.5c-0.2,0-0.4,0.2-0.4,0.4s0.2,0.4,0.4,0.4h0.2v4.9h-0.3V15.6z"/>
				<path id="Shape_2_" class="st0" d="M16,16.3c0.1-0.1,0.2-0.2,0.2-0.3v-1.9h1.1c0.8,0,1.5-0.7,1.5-1.5v-1.1
					c0-0.8-0.7-1.5-1.5-1.5h-1.6c-0.2,0-0.3,0.2-0.3,0.4v3.3c0,0,0,0.1,0,0.2V16c0,0.1,0.1,0.3,0.2,0.3C15.8,16.4,15.9,16.4,16,16.3
					z M16.2,10.7h1.1c0.4,0,0.8,0.3,0.8,0.8v1.1c0,0.4-0.3,0.8-0.8,0.8h-1.1V10.7z"/>
			</g>
		</g>
	</g>
</g>
</svg>

<?xml version="1.0" encoding="UTF-8"?>
<svg width="29px" height="23px" viewBox="0 0 29 23" version="1.1" xmlns="http://www.w3.org/2000/svg" xmlns:xlink="http://www.w3.org/1999/xlink">
    <!-- Generator: Sketch 59 (86127) - https://sketch.com -->
    <title>HDL/Icon/Standard/Setup/api</title>
    <desc>Created with Sketch.</desc>
    <g id="Colors" stroke="none" stroke-width="1" fill="none" fill-rule="evenodd">
        <g id="Setup-Icons" transform="translate(-116.000000, -196.000000)">
            <g id="HDL/Icon/Standard/Setup/api" transform="translate(116.000000, 196.000000)">
                <g id="API">
                    <path d="M24.2,3.4 L14.5,3.4 C14.5,3.4 14.5,3.5 14.5,3.5 L14.5,6.2 C14.5,8 13.5,9.5 12.1,10.4 C11.7,12.7 9.5,14.5 7.2,14.5 L4.6,14.5 L4.6,18.9 C4.6,21.1 6.4,22.9 8.6,22.9 L24.2,22.9 C26.4,22.9 28.2,21.1 28.2,18.9 L28.2,7.4 C28.2,5.2 26.4,3.4 24.2,3.4 Z" id="Path" fill="#25A6F7" fill-rule="nonzero"></path>
                    <path d="M23.8,21.6 L9.1,21.6 C7.5,21.6 6.1,20.2 6.1,18.6 L6.1,7.7 C6.1,6.1 7.4,4.7 9.1,4.7 L23.8,4.7 C25.4,4.7 26.8,6.1 26.8,7.7 L26.8,18.6 C26.8,20.2 25.4,21.6 23.8,21.6 Z" id="Path" fill="#FFFFFF" fill-rule="nonzero"></path>
                    <path d="M9.5,0 L9.4,0.8 C9.1,0.9 8.8,1.1 8.5,1.3 L7.7,1 L7,2.4 L7.7,2.9 C7.7,3.1 7.6,3.2 7.6,3.4 C7.6,3.6 7.6,3.7 7.7,3.9 L7,4.4 L7.8,5.8 L8.6,5.5 C8.9,5.7 9.2,5.9 9.5,6 L9.6,6.8 L11.2,6.8 L11.3,6 C11.6,5.9 11.9,5.7 12.2,5.5 L13,5.8 L13.8,4.4 L13.1,3.9 C13.1,3.7 13.2,3.6 13.2,3.4 C13.2,3.2 13.2,3.1 13.1,2.9 L13.8,2.4 L12.8,1 L12,1.3 C11.7,1.1 11.4,0.9 11.1,0.8 L11.1,0 L9.5,0 Z M10.3,2.2 C11,2.2 11.5,2.7 11.5,3.4 C11.5,4.1 11,4.6 10.3,4.6 C9.6,4.6 9.1,4 9.1,3.4 C9.1,2.7 9.6,2.2 10.3,2.2 Z M3.4,4.7 L3.3,5.9 C2.7,6 2.2,6.3 1.8,6.7 L0.8,6.2 L0,7.6 L0.9,8.3 C0.9,8.6 0.8,8.8 0.8,9.1 C0.8,9.4 0.8,9.7 0.9,9.9 L0,10.6 L0.8,12 L1.9,11.5 C2.3,11.9 2.8,12.2 3.3,12.3 L3.4,13.5 L5,13.5 L5.1,12.3 C5.6,12.1 6.1,11.9 6.5,11.5 L7.6,12 L8.4,10.6 L7.5,9.9 C7.6,9.6 7.6,9.4 7.6,9.1 C7.6,8.8 7.6,8.5 7.5,8.3 L8.4,7.6 L7.6,6.2 L6.5,6.7 C6.1,6.3 5.7,6 5.1,5.9 L5,4.7 L3.4,4.7 Z M4.2,7.8 C4.9,7.8 5.5,8.4 5.5,9.2 C5.5,9.9 4.9,10.5 4.2,10.5 C3.5,10.5 2.8,9.9 2.8,9.1 C2.8,8.4 3.4,7.8 4.2,7.8 Z" id="Shape" fill="#25A6F7" fill-rule="nonzero"></path>
                    <path d="M13.8,16.3 C13.9,16.4 14.1,16.4 14.2,16.3 C14.3,16.2 14.4,16.1 14.4,16 L14.4,15.9 C14.4,15.9 14.4,15.8 14.4,15.8 L12.7,10.3 C12.6,10.1 12.5,10 12.3,10 C12.1,10 12,10.1 12,10.3 L10.3,15.8 C10.3,15.8 10.3,15.9 10.3,15.9 L10.3,16 C10.3,16.1 10.4,16.3 10.5,16.3 C10.6,16.4 10.8,16.4 10.9,16.3 C11,16.2 11.1,16.1 11.1,16 L11.1,15.9 L11.4,14.8 L13.4,14.8 L13.7,15.9 L13.7,16 C13.6,16.1 13.7,16.2 13.8,16.3 Z M11.5,14.1 L12.3,11.6 L13.1,14.1 L11.5,14.1 Z" id="Shape" fill="#25A6F7" fill-rule="nonzero"></path>
                    <path d="M20.1,15.6 C19.9,15.6 19.7,15.8 19.8,16 C19.8,16.2 20,16.4 20.2,16.3 L21.3,16.3 C21.4,16.3 21.6,16.2 21.6,16.1 C21.7,16 21.7,15.8 21.6,15.7 C21.5,15.6 21.4,15.5 21.3,15.5 L21.1,15.5 L21.1,10.6 L21.3,10.6 C21.4,10.6 21.6,10.5 21.6,10.4 C21.7,10.3 21.7,10.1 21.6,10 C21.5,9.9 21.4,9.8 21.3,9.8 L20.8,9.8 C20.8,9.8 20.7,9.8 20.7,9.8 C20.7,9.8 20.7,9.8 20.7,9.8 L20.2,9.8 C20,9.8 19.8,10 19.8,10.2 C19.8,10.4 20,10.6 20.2,10.6 L20.4,10.6 L20.4,15.5 L20.1,15.5 L20.1,15.6 Z" id="Path" fill="#25A6F7" fill-rule="nonzero"></path>
                    <path d="M16,16.3 C16.1,16.2 16.2,16.1 16.2,16 L16.2,14.1 L17.3,14.1 C18.1,14.1 18.8,13.4 18.8,12.6 L18.8,11.5 C18.8,10.7 18.1,10 17.3,10 L15.7,10 C15.5,10 15.4,10.2 15.4,10.4 L15.4,13.7 C15.4,13.7 15.4,13.8 15.4,13.9 L15.4,16 C15.4,16.1 15.5,16.3 15.6,16.3 C15.8,16.4 15.9,16.4 16,16.3 Z M16.2,10.7 L17.3,10.7 C17.7,10.7 18.1,11 18.1,11.5 L18.1,12.6 C18.1,13 17.8,13.4 17.3,13.4 L16.2,13.4 L16.2,10.7 Z" id="Shape" fill="#25A6F7" fill-rule="nonzero"></path>
                </g>
            </g>
        </g>
    </g>
</svg>
